wilib/img/svg/cursor-default.svg

<svg xmlns="http://www.w3.org/2000/svg" xmlns:xlink="http://www.w3.org/1999/xlink" preserveAspectRatio="none" width="40" height="58" viewBox="0 0 40 58"><defs><path fill="#FFF" d="M.45 1.9h6.9l-14.2-12.8-.5 17.5.7-.6.6-.4 3.25-2.3 4.05 7.55 3.2-1.2-4-7.75z" id="a"/><path id="b" stroke="#000" stroke-linejoin="round" stroke-linecap="round" fill="none" d="M-7.35 6.6l.5-17.5L7.35 1.9H.45l4 7.75-3.2 1.2L-2.8 3.3l-3.25 2.3-1.3 1 .7-.6.6-.4"/></defs><g transform="matrix(2.528 0 0 2.5297 20 29.05)"><use xlink:href="#a"/><use xlink:href="#b"/></g></svg>

<svg xmlns="http://www.w3.org/2000/svg" version="1.1" xmlns:xlink="http://www.w3.org/1999/xlink" preserveAspectRatio="none" x="0px" y="0px" width="40px" height="58px" viewBox="0 0 40 58">
<defs>
<g id="Interpolar_7_0_Layer0_0_FILL">
<path fill="#FFFFFF" stroke="none" d="
M 0.45 1.9
L 7.35 1.9 -6.85 -10.9 -7.35 6.6 -6.65 6 -6.05 5.6 -2.8 3.3 1.25 10.85 4.45 9.65 0.45 1.9 Z"/>
</g>

<path id="Interpolar_7_0_Layer0_0_1_STROKES" stroke="#000000" stroke-width="1" stroke-linejoin="round" stroke-linecap="round" fill="none" d="
M -7.35 6.6
L -6.85 -10.9 7.35 1.9 0.45 1.9 4.45 9.65 1.25 10.85 -2.8 3.3 -6.05 5.6 -7.35 6.6 -6.65 6 -6.05 5.6"/>
</defs>

<g transform="matrix( 2.5279998779296875, 0, 0, 2.5297088623046875, 20,29.05) ">
<g transform="matrix( 1, 0, 0, 1, 0,0) ">
<use xlink:href="#Interpolar_7_0_Layer0_0_FILL"/>

<use xlink:href="#Interpolar_7_0_Layer0_0_1_STROKES"/>
</g>
</g>
</svg>
